coreui/free/cil-ruble.svg

<svg xmlns="http://www.w3.org/2000/svg" viewBox="0 0 512 512">
  <path fill="var(--ci-primary-color, currentColor)" d="M291.75,308.1a105.8,105.8,0,1,0,0-211.6H136v32h39.943V276.1H136v32h39.943V352H136v32h39.943v56h32V384H304V352H207.943V308.1ZM207.943,128.5H291.75a73.8,73.8,0,1,1,0,147.6H207.943Z" class="ci-primary"/>
</svg>

<svg viewBox="0 0 512 512" xmlns="http://www.w3.org/2000/svg"><path d="M291.75 308.1v0c58.43 0 105.8-47.37 105.8-105.8 0-58.44-47.37-105.8-105.8-105.8H136v32h39.94v147.6h-39.95v32h39.94V352h-39.95v32h39.94v56h32v-56h96.05v-32h-96.06v-43.9Zm-83.81-179.6h83.8v0c40.75 0 73.8 33.04 73.8 73.8 0 40.75-33.05 73.8-73.8 73.8h-83.81Z"/></svg>
